!!!!SEGMENT: pl-wumfc--n44051--001_noskowski-zygmunt--dwie-piesni-op-70-pytasz-sie.krn
!!!cenid: 18xx:4179
!!!COM: Noskowski, Zygmunt
!!!COM-rismID: pe106604
!!!CDT: 1846/05/02-1909/07/23
!!!CNT: Polish
!!!GTL: Dwie pieśni op. 70
!!!OTL: Pytasz się
!!!OMV: 001
!!!PDT:
!!!AGN:
!!!SMS-siglum: PL-Wumfc
!!!SMS-shelfmark: N44051
!!!SMS-shelfwork: 001-001 G
!!!SMS-variant:
!!!SMS-altvar:
!!!NIFC-rismSourceID: 1001129980
!!!NIFC-rismChildID: 1001129980
!!!NIFC-islandoraID: pl-wumfc:9498
!!!URL-pdf-islandora: https://repozytorium.nifc.pl/islandora/object/pl-wumfc%3A9498/datastream/PDF/view
!!!URL-scan: https://polish.musicsources.pl/pl/lokalizacje/galeria/druki-muzyczne/12492/1 @EN{Scan on Polish Music Sources Website} @PL{Skany w portalu Dziedzictwo Muzyki Polskiej w otwartym dostępie}
!!!ONB-nifc: UWAGA: w zbiorze 1. Pytasz się, 2. Na rozdrożu
!!!AIN: 2 piano 1 vox
!!!key: e
**kern	**kern	**dynam	**kern	**text	**dynam
*part3	*part2	*part2	*part1	*part1	*part1
*staff3	*staff2	*	*staff1	*staff1	*
*I"Pianoforte	*I"Fortepian.	*	*I"Głos.	*	*
*Ipiano	*Ipiano	*	*Ivox	*	*
*ICklav	*ICklav	*	*ICvox	*	*
*	*I'pf	*	*I'voce umana	*	*
*clefF4	*clefG2	*	*clefG2	*	*
*k[f#]	*k[f#]	*	*k[f#]	*	*
*e:	*e:	*	*e:	*	*
*M9/8	*M9/8	*	*M9/8	*	*
=1	=1	=1	=1	=1	=1
!	!	!	!LO:TX:a:B:t=Andantino	!	!
!	!	!	!LO:TX:a:B:t=Andantino semplice.	!	!
8r	4.G/ 4.B 4.e	p	8%9r	.	.
4EE/ 4E	.	.	.	.	.
8r	4.G/ 4.d 4.e	<	.	.	.
4BBB/ 4BB	.	.	.	.	.
8r	4.G^^/ 4.c 4.e	[	.	.	.
4AAA^^/ 4AA	.	.	.	.	.
=2	=2	=2	=2	=2	=2
8r	4.A^^/ 4.c 4.f#	f	8%9r;	.	.
4FF#/ 4F#	.	.	.	.	.
8r	4.A/ 4.e 4.f#	>	.	.	.
4CC/ 4C	.	.	.	.	.
8r	4A;/ 4d#X 4g	.	.	.	.
8BBB;/ 8BB	.	.	.	.	.
8r;	8r;	]	.	.	.
=3	=3	=3	=3	=3	=3
*^	*	*	*	*	*
!	!	!	!	!	!	!LO:DY:a
!	!	!	!	!	!	!LO:DY:a
(8E/L	4.EE\	(8G/L 8e	p	8e/	Py-	p <
8C/	.	8A/ 8e 8f#	<	8f#/	-tasz	.
8BB/J)	.	8B/J) 8e 8g	.	8g/	się,	.
4.AA/	2.EE\	4.c/ 4.e 4.a	[	4.a/	cze-	[
(4C/	.	(4A/ 4e 4f#	.	8f#/	-mu	.
.	.	.	.	8r	.	.
8BB/)	.	8B/) 8e 8g	.	8g/	u-	.
!LO:LB:g=original	!	!LO:LB:g=original	!	!LO:LB:g=original	!	!
*v	*v	*	*	*	*	*
=4	=4	=4	=4	=4	=4
4.EE/ 4.E	(8d/L 8e 8b	.	8b\	-mil-	.
.	8c/ 8e 8a	.	8a/	-kły	.
.	8A/J) 8c 8f#	.	8f#/	me	.
((4.DD#X/ 4.D#X	4.A/ 4.c 4.fn	.	4.cc\	pieś-	.
8EE/)) 8E	8G/ 8B 8e	.	8b\	-ni	.
8r	8r	.	8r	.	.
8GGG/ 8GG	8B/ 8dn 8e	.	8dd\	J	.
=5	=5	=5	=5	=5	=5
4.AAA/ 4.AA	4.A/ 4.c 4.e	.	4cc\	jęk	.
.	.	.	8a/	tak	.
[4.CC^^/ [4.C	[4.F#^^/ [>4.A [4.e	.	4.ee\	częs-	.
8CC/] 8C]	8F#/] 8A] 8e]	.	4f#/	-to	.
8r	8r	.	.	.	.
8FFF#/ 8FF#	8A/ 8c 8e	.	8cc\	zmych	.
=6	=6	=6	=6	=6	=6
4.BBB/ 4.BB	(8A/L 8d 8e#X	.	8e#X/	pier-	.
.	8A/ 8d#X 8f#	.	8f#/	-si	.
.	8A/J) 8B 8d#	.	8b\	od-	.
[4.EEn/ [4.BB	(4.A/ 4.B 4.d#	.	(4b\	-zy-	.
.	.	.	8a/)	.	.
4EE/] 4BB]	4G/) 4B 4en	.	4g/	-wa?	.
8r	8r	.	8r	.	.
=7	=7	=7	=7	=7	=7
[8CC#X/	4r	mf	4r	.	.
4CC#/_ [4BB	.	.	.	.	.
!	!	!	!	!	!LO:DY:a
.	(8G/	.	8g/	Bo	mf
2.CC#/] 2.BB]	8e/L	.	[4.cc#X\	wsnach	.
.	8B/	.	.	.	.
.	8g/J	.	.	.	.
.	8e/L	.	4cc#\]	.	.
.	8B/	.	.	.	.
.	8G/J)	.	8b\	się	.
!LO:LB:g=original	!LO:LB:g=original	!	!LO:LB:g=original	!	!
=8	=8	=8	=8	=8	=8
*^	*	*	*	*	*
(<8DD/L	4.DD\	4r	.	[4.b\	mo-	.
(<8BB/	.	.	.	.	.	.
(8D/J	.	8r	.	.	.	.
2.DD/) 2.BB) 2.D)	2.ryy	(8F#/L	.	(4b\]	.	.
.	.	8B/	.	.	.	.
.	.	8d/J	.	8g/)	.	.
.	.	8f#/L	.	4.f#/	-ich	.
.	.	8B/	.	.	.	.
.	.	8d/J)	.	.	.	.
*v	*v	*	*	*	*	*
=9	=9	=9	=9	=9	=9
4.AAA#X/ 4.AA#X	8r	.	4f#/	nic	.
.	(8F#/L	.	.	.	.
.	8e/J)	.	8g#X/	do-	.
2.FFF#/ 2.FF#	(8B/L	.	(4.b\	-bre-	.
.	8e/	.	.	.	.
.	8g/J	.	.	.	.
.	8A#X/L	.	4a#X/)	.	.
.	8e/	.	.	.	.
.	8f#/J)	.	8f#/	-go	.
=10	=10	=10	=10	=10	=10
[2.BBB/ [2.BB	(8A#X/L	.	4.ee\	nie	.
.	8e/	.	.	.	.
.	8f#/J)	.	.	.	.
.	(8B/L	<	[4.dd\	śni.	.
.	8d/	.	.	.	.
.	8f#/J	.	.	.	.
4BBB/] 4BB]	8b/L	.	4dd\]	.	.
.	8f#/	.	.	.	.
!	!	!	!	!	!LO:DY:a
8r	8cc#X/J)	.	8cc#X\	I	f
=11	=11	=11	=11	=11	=11
4.DD/ 4.D	(8a#X/L	f	4a#X/	sło-	.
.	8B/	.	.	.	.
.	8f#/J) 8b	.	8b\	-wik	.
4CC#X^^/ 4C#X	4B^^/ 4e 4g	.	4.ff#\	tyl-	.
8r	8r	.	.	.	.
4r	4r	.	8gn/	-ko	.
.	.	.	8r	.	.
!	!	!	!	!	!LO:DY:a
8r	8r	.	8ee\	po	p
!LO:LB:g=original	!LO:LB:g=original	!	!LO:LB:g=original	!	!
=12	=12	=12	=12	=12	=12
4FF#/ 4F#	8.A#X/L 8.c#X 8.f#	p	8.f#/	Świę-	.
.	16B'/K 16d 16g	.	16g/	-ty	.
8r	8c#'/J 8e 8a#X	.	8a#X/	Wit	.
[4.BB\ [4.F#	((4.c#/ 4.e 4.a#	.	4.cc#X\	śpie-	.
4BB\] 4F#]	4B/)) 4d 4b	.	4b\	-wa	.
8r	8r	.	8r	.	.
=13	=13	=13	=13	=13	=13
(8BBB/L	4r	.	8%9r	.	.
(8FF#/	.	.	.	.	.
(8BB/J	8r	<	.	.	.
*	*clefF4	*	*	*	*
(4.BBB/) (4.FF#) (4.BB)	(8D\L	.	.	.	.
.	8F#\	.	.	.	.
.	8B\J	.	.	.	.
*	*clefG2	*	*	*	*
4BBB/) 4FF#) 4BB)	8d/L	.	.	.	.
.	8f#/	.	.	.	.
8r	8b/J)	.	.	.	.
=14	=14	=14	=14	=14	=14
!	!	!	!	!	!LO:DY:a
4AAAn^^/ 4AAn	4e-X^^/ 4g 4ccn	f	4.ccn\	Stra-	f
8r	8r	.	.	.	.
4r	4r	.	4cc\	-szne	.
8r	8r	.	8g/	się	.
4.DD/ 4.D	4.c/ 4.f#	p	8b\	w du-	.
.	.	.	8a/	-szy	.
.	.	.	8f#/	na-	.
!LO:LB:g=original	!LO:LB:g=original	!	!LO:LB:g=original	!	!
=15	=15	=15	=15	=15	=15
2.GG/ 2.D	8r	.	8e-X/	-ra-	.
.	(8c/L 8d	.	8d/	-dza	.
.	8f#/J	<	8f#/	prze-	.
.	8a/L	.	(4a/	-czu-	.
.	8e-X/	.	.	.	.
.	8f#/J) 8cc	.	8cc\)	.	.
4.GG/ 4.G	(8g/L 8b	.	4b\	-cie	.
.	8d/	.	.	.	.
.	8dd/J)	.	8r	.	.
=16	=16	=16	=16	=16	=16
!	!	!	!	!	!LO:DY:a
4GG-X/ 4G-X	4e-X/ 4b-X 4ee-X	f	4.ee-X\	Wszyst-	f
8r	8r	.	.	.	.
4r	4r	.	4ee-\	-ko	.
8r	8r	.	8b-X\	się	.
4FFn/ 4Fn	(8dd-X/L	>	4dd-X\	ła-	.
.	8e-X/	.	.	.	.
8r	8a/J) 8cc	]]	8cc\	-mie,	.
=17	=17	=17	=17	=17	=17
2.BB-X\ 2.Fn	8r	mf	4r	.	.
.	(8c/L	.	.	.	.
.	8e-X/J 8a	.	8a/	roz-	.
.	8g-X/L	.	8g-X/	-stra-	.
.	8A/	.	8fn/	-ja,	.
.	8e-/J) 8fn	.	8a/	roz-	.
4.BB-^^\ 4.F	(8a/L	.	(4cc\	-ry-	.
.	8c/	.	.	.	.
.	8e-/J) 8cc	.	8ee-X\)	.	.
!LO:LB:g=original	!LO:LB:g=original	!	!LO:LB:g=original	!	!
=18	=18	=18	=18	=18	=18
(8BB-X\L	4d-X/ 4b-X	.	4dd-X\	-wa:	.
8Fn\	.	.	.	.	.
[8B-X\J)	8r	.	8r	.	.
4B-\]	(8d-X/L	<	4r	.	.
.	8fn/	.	.	.	.
8r	8b-/J	.	8r	.	.
!	!	!	!	!	!LO:DY:a
8r	8dd-X/L)	.	8dd-\	Nie	f
(8c\L	(8e-X/ 8a	[	8a/	każ	.
!	!	!	!LO:TX:a:i:t=appassionato	!	!
8B-\J)	8d-/J) 8b-	.	8b-X\	mi	.
=19	=19	=19	=19	=19	=19
(8GG\L	(8cc/L	f	4cc\	śpie-	.
8En\	8c/	.	.	.	.
8B-X\J)	8en/J) 8bn	.	8bn\	-wać	.
(8FFn\L	(8cc/L	.	4cc\	na	.
8D#X\	8c/	.	.	.	.
8A\J)	8d#X/J) 8b	<	8b\	roz-	.
(8FFn\L	(8cc/L	.	(4cc\	-pa-	.
8E\	8dn/	.	.	.	.
8Bn\J)	8g#X/J)	.	8g#X/)	-czy	.
=20	=20	=20	=20	=20	=20
(8AA\L	(8b/L	.	4.b\	nu-	.
8E\	8d/	.	.	.	.
8G#X\J	8e/J	.	.	.	.
8AA\L	8c/L	.	[4.a/	-cie!	.
8E\	8d#X/	.	.	.	.
8A\J)	8e/J)	.	.	.	.
4r;	8c/ 8a	.	8a/]	.	.
.	8r;	.	8r;	.	.
!	!	!	!	!	!LO:DY:a
8r	8r	.	8f#/	I	p
=21	=21	=21	=21	=21	=21
*	*^	*	*	*	*
!	!	!	!	!	!	!LO:DY:a
[4.BBB/ [4.BB	(4d#X/	4.Gn\ 4.B	<	4d#X/	sło-	<
!	!	!	!	!	!	!LO:DY:a
.	8e/)	.	.	8e/	-wik	[ f
4BBB/] 4BB]	4F#^^/ 4A 4c 4e	2.ryy	[ f	(4.b^^\	tyl-	.
8r	8r	.	.	.	.	.
.	.	.	.	8qc/)	.	.
4r	4r	.	.	8c/	-ko	.
.	.	.	.	8r	.	.
!	!	!	!	!	!	!LO:DY:a
8r	8r	.	.	8a/	po	p
!LO:LB:g=original	!LO:LB:g=original	!	!	!LO:LB:g=original	!	!
*	*v	*v	*	*	*	*
=22	=22	=22	=22	=22	=22
!	!	!LO:DY:a	!	!	!
[4BBB\ [4BB	8.D#X/L 8.F# 8.A 8.B	p	8.B/	Świę-	.
.	16E/Jk 16F# 16A 16c	.	16c/	-ty	.
16BBB\] 16BB]	16F#/ 16A 16c 16d#X	.	16d#X/	Wit	.
16r;	16r;	.	16r;	.	.
[4.EE/ [4.BB	(4.A/ 4.c 4.d# 4.f#	pp	[4.f#/	śpie-	.
4EE/] 4BB]	4F#/ 4A 4c 4d#	.	(4f#/]	.	.
8r	8G/) 8B 8e	.	8e/)	.	.
=23	=23	=23	=23	=23	=23
8r	4.G^^/ 4.B 4.e	p	[2.e/	-wa!	.
4EE/ 4E	.	.	.	.	.
8r	4.G^^/ 4.dn 4.e	.	.	.	.
4BBB/ 4BB	.	.	.	.	.
8r	4.G^^/ 4.c 4.e	.	4e/]	.	.
4AAA/ 4AA	.	.	.	.	.
.	.	.	8r	.	.
=24	=24	=24	=24	=24	=24
*	*^	*	*	*	*
*ped	*	*	*	*	*	*
4EEE/ 4EE	8G'/L 8B 8e	8ryy	.	8%9r	.	.
!	!LO:TX:b:i:t=rall.	!	!	!	!	!
.	8a#X/	(4a#^^>\	.	.	.	.
8r	8gg/J	.	.	.	.	.
4r	(8b^^\L	2.r)yy	.	.	.	.
.	8ee\	.	.	.	.	.
8r	8gg\J)	.	.	.	.	.
4r	8eee\	.	.	.	.	.
.	8r	.	.	.	.	.
8r	(8B/	.	pp	.	.	.
*	*v	*v	*	*	*	*
=25	=25	=25	=25	=25	=25
*ped	*	*	*	*	*
4.EE/ 4.BB 4.E	[4.G/) [4.e	.	8%9r;	.	.
4EEE;/	4G;/] 4e]	.	.	.	.
8r	8r	.	.	.	.
4r	4r	.	.	.	.
8r	8r	.	.	.	.
==	==	==	==	==	==
*-	*-	*-	*-	*-	*-
!!!RDF**kern: > = above
!!!RDF**kern: < = below
!!!system-decoration: s1[(s2,s3)]
!!!ENC: Filip Voros
!!!END: 2022-09-08
!!!ENC: Julita Ruszuk
!!!END: 2022-09-22
!!!YEC: Copyright 2022 Narodowy Instytut Fryderyka Chopina (https://polishscores.org)
!!!YEM: License CC-BY-4.0 (https://creativecommons.org/licenses/by/4.0)
